static/cards/FrenchDeck/cyberwave/card_hearts_08.svg

<svg xmlns="http://www.w3.org/2000/svg" width="822" height="1122" fill="none" viewBox="0 0 822 1122"><rect width="822" height="1122" fill="#1a0033" rx="20"/><g fill="#b366ff" clip-path="url(#a)"><path d="M121.008 160.92q-15.616 0-24.448-6.528t-8.832-18.304q0-8.448 4.608-14.336 4.735-6.016 12.544-8.064-14.465-5.248-14.465-19.712 0-11.52 7.808-17.664 7.936-6.272 22.785-6.272 14.847 0 22.656 6.272 7.935 6.144 7.936 17.664 0 14.464-14.464 19.712 7.808 2.047 12.416 8.064 4.736 5.888 4.736 14.336 0 11.776-8.832 18.304t-24.448 6.528m0-50.176q11.775 0 17.792-3.84 6.144-3.84 6.144-12.928 0-9.6-5.888-13.824-5.889-4.224-18.048-4.224-12.16 0-18.048 4.224-5.889 4.224-5.888 13.824 0 9.088 6.016 12.928 6.144 3.84 17.92 3.84m0 44.288q13.44 0 19.968-4.608 6.656-4.736 6.656-14.336 0-19.328-26.624-19.328t-26.624 19.328q0 9.6 6.528 14.336 6.656 4.608 20.096 4.608M120.798 218.497c-10.18-10.18-26.685-10.18-36.865 0s-10.18 26.685 0 36.865l33.179 33.179a5.213 5.213 0 0 0 7.373 0l33.179-33.179-.004-.003c9.814-10.207 9.692-26.436-.365-36.493s-26.287-10.179-36.493-.365zM692.992 957.08q15.616 0 24.448 6.528t8.832 18.304q0 8.448-4.608 14.336c-3.157 4.012-7.338 6.702-12.544 8.062q14.464 5.25 14.464 19.71 0 11.52-7.808 17.67-7.935 6.27-22.784 6.27-14.847 0-22.656-6.27-7.936-6.15-7.936-17.67 0-14.46 14.464-19.71c-5.205-1.36-9.344-4.05-12.416-8.062q-4.736-5.888-4.736-14.336 0-11.776 8.832-18.304t24.448-6.528m0 50.18q-11.775 0-17.792 3.84c-4.096 2.56-6.144 6.87-6.144 12.92q0 9.6 5.888 13.83c3.926 2.81 9.942 4.22 18.048 4.22 8.107 0 14.123-1.41 18.048-4.22q5.889-4.23 5.888-13.83c0-6.05-2.005-10.36-6.016-12.92q-6.144-3.84-17.92-3.84m0-44.292q-13.44 0-19.968 4.608-6.656 4.736-6.656 14.336 0 19.328 26.624 19.328t26.624-19.328q0-9.6-6.528-14.336-6.656-4.608-20.096-4.608M693.202 899.503c10.18 10.18 26.685 10.18 36.865 0s10.18-26.685 0-36.865l-33.179-33.179a5.213 5.213 0 0 0-7.373 0l-33.179 33.179.004.003c-9.814 10.207-9.692 26.436.365 36.493s26.287 10.179 36.493.365z"/></g><path stroke="#b366ff" stroke-width="8" d="M377.261 545.326c8.618-8.618 22.59-8.619 31.209-.001l2.777 2.777 2.827-2.718c8.639-8.306 22.379-8.203 30.892.31 8.514 8.514 8.617 22.254.31 30.893l-.137.143-32.983 32.982a1.213 1.213 0 0 1-1.716.001l-33.179-33.179c-8.618-8.618-8.618-22.59 0-31.208ZM293.261 707.326c8.618-8.618 22.59-8.619 31.209-.001l2.777 2.777 2.827-2.718c8.639-8.306 22.379-8.203 30.892.31 8.514 8.514 8.617 22.254.31 30.893l-.137.143-32.983 32.982a1.213 1.213 0 0 1-1.716.001l-33.179-33.179c-8.618-8.618-8.618-22.59 0-31.208ZM460.261 707.326c8.618-8.618 22.59-8.619 31.209-.001l2.777 2.777 2.827-2.718c8.639-8.306 22.379-8.203 30.892.31 8.514 8.514 8.617 22.254.31 30.893l-.137.143-32.983 32.982a1.213 1.213 0 0 1-1.716.001l-33.179-33.179c-8.618-8.618-8.618-22.59 0-31.208ZM545.261 545.326c8.618-8.618 22.59-8.619 31.209-.001l2.777 2.777 2.827-2.718c8.639-8.306 22.379-8.203 30.892.31 8.514 8.514 8.617 22.254.31 30.893l-.137.143-32.983 32.982a1.213 1.213 0 0 1-1.716.001l-33.179-33.179c-8.618-8.618-8.618-22.59 0-31.208ZM209.261 545.326c8.618-8.618 22.59-8.619 31.209-.001l2.777 2.777 2.827-2.718c8.639-8.306 22.379-8.203 30.892.31 8.514 8.514 8.617 22.254.31 30.893l-.137.143-32.983 32.982a1.213 1.213 0 0 1-1.716.001l-33.179-33.179c-8.618-8.618-8.618-22.59 0-31.208ZM545.261 383.326c8.618-8.618 22.59-8.619 31.209-.001l2.777 2.777 2.827-2.718c8.639-8.306 22.379-8.203 30.892.31 8.514 8.514 8.617 22.254.31 30.893l-.137.143-32.983 32.982a1.213 1.213 0 0 1-1.716.001l-33.179-33.179c-8.618-8.618-8.618-22.59 0-31.208ZM209.261 383.326c8.618-8.618 22.59-8.619 31.209-.001l2.777 2.777 2.827-2.718c8.639-8.306 22.379-8.203 30.892.31 8.514 8.514 8.617 22.254.31 30.893l-.137.143-32.983 32.982a1.213 1.213 0 0 1-1.716.001l-33.179-33.179c-8.618-8.618-8.618-22.59 0-31.208ZM377.261 383.326c8.618-8.618 22.59-8.619 31.209-.001l2.777 2.777 2.827-2.718c8.639-8.306 22.379-8.203 30.892.31 8.514 8.514 8.617 22.254.31 30.893l-.137.143-32.983 32.982a1.213 1.213 0 0 1-1.716.001l-33.179-33.179c-8.618-8.618-8.618-22.59 0-31.208Z"/><defs><clipPath id="a"><path fill="#fff" d="M46 48h722v1022H46z"/></clipPath></defs></svg>

<svg width="822" height="1122" viewBox="0 0 822 1122" fill="none" xmlns="http://www.w3.org/2000/svg">
<rect width="822" height="1122" rx="20" fill="#1A0033"/>
<g clip-path="url(#clip0_31_1634)">
<path d="M121.008 160.92C110.597 160.92 102.448 158.744 96.5595 154.392C90.6715 150.04 87.7275 143.939 87.7275 136.088C87.7275 130.456 89.2635 125.677 92.3355 121.752C95.4928 117.741 99.6742 115.053 104.88 113.688C95.2368 110.189 90.4155 103.619 90.4155 93.976C90.4155 86.296 93.0182 80.408 98.2235 76.312C103.514 72.1307 111.109 70.04 121.008 70.04C130.906 70.04 138.458 72.1307 143.664 76.312C148.954 80.408 151.6 86.296 151.6 93.976C151.6 103.619 146.778 110.189 137.136 113.688C142.341 115.053 146.48 117.741 149.552 121.752C152.709 125.677 154.288 130.456 154.288 136.088C154.288 143.939 151.344 150.04 145.456 154.392C139.568 158.744 131.418 160.92 121.008 160.92ZM121.008 110.744C128.858 110.744 134.789 109.464 138.8 106.904C142.896 104.344 144.944 100.035 144.944 93.976C144.944 87.576 142.981 82.968 139.056 80.152C135.13 77.336 129.114 75.928 121.008 75.928C112.901 75.928 106.885 77.336 102.96 80.152C99.0342 82.968 97.0715 87.576 97.0715 93.976C97.0715 100.035 99.0768 104.344 103.088 106.904C107.184 109.464 113.157 110.744 121.008 110.744ZM121.008 155.032C129.968 155.032 136.624 153.496 140.976 150.424C145.413 147.267 147.632 142.488 147.632 136.088C147.632 123.203 138.757 116.76 121.008 116.76C103.258 116.76 94.3835 123.203 94.3835 136.088C94.3835 142.488 96.5595 147.267 100.912 150.424C105.349 153.496 112.048 155.032 121.008 155.032Z" fill="#B366FF"/>
<path d="M120.798 218.497C110.618 208.317 94.1128 208.317 83.9327 218.497C73.7526 228.677 73.7526 245.182 83.9327 255.362L117.112 288.541C119.148 290.577 122.449 290.577 124.485 288.541L157.664 255.362L157.66 255.359C167.474 245.152 167.352 228.923 157.295 218.866C147.238 208.809 131.008 208.687 120.802 218.501L120.798 218.497Z" fill="#B366FF"/>
<path d="M692.992 957.08C703.403 957.08 711.552 959.256 717.44 963.608C723.328 967.96 726.272 974.061 726.272 981.912C726.272 987.544 724.736 992.323 721.664 996.248C718.507 1000.26 714.326 1002.95 709.12 1004.31C718.763 1007.81 723.584 1014.38 723.584 1024.02C723.584 1031.7 720.982 1037.59 715.776 1041.69C710.486 1045.87 702.891 1047.96 692.992 1047.96C683.094 1047.96 675.542 1045.87 670.336 1041.69C665.046 1037.59 662.4 1031.7 662.4 1024.02C662.4 1014.38 667.222 1007.81 676.864 1004.31C671.659 1002.95 667.52 1000.26 664.448 996.248C661.291 992.323 659.712 987.544 659.712 981.912C659.712 974.061 662.656 967.96 668.544 963.608C674.432 959.256 682.582 957.08 692.992 957.08ZM692.992 1007.26C685.142 1007.26 679.211 1008.54 675.2 1011.1C671.104 1013.66 669.056 1017.97 669.056 1024.02C669.056 1030.42 671.019 1035.03 674.944 1037.85C678.87 1040.66 684.886 1042.07 692.992 1042.07C701.099 1042.07 707.115 1040.66 711.04 1037.85C714.966 1035.03 716.928 1030.42 716.928 1024.02C716.928 1017.97 714.923 1013.66 710.912 1011.1C706.816 1008.54 700.843 1007.26 692.992 1007.26ZM692.992 962.968C684.032 962.968 677.376 964.504 673.024 967.576C668.587 970.733 666.368 975.512 666.368 981.912C666.368 994.797 675.243 1001.24 692.992 1001.24C710.742 1001.24 719.616 994.797 719.616 981.912C719.616 975.512 717.44 970.733 713.088 967.576C708.651 964.504 701.952 962.968 692.992 962.968Z" fill="#B366FF"/>
<path d="M693.202 899.503C703.382 909.683 719.887 909.683 730.067 899.503C740.247 889.323 740.247 872.818 730.067 862.638L696.888 829.459C694.852 827.423 691.551 827.423 689.515 829.459L656.336 862.638L656.34 862.641C646.526 872.848 646.648 889.077 656.705 899.134C666.762 909.191 682.992 909.313 693.198 899.499L693.202 899.503Z" fill="#B366FF"/>
</g>
<path d="M377.261 545.326C385.879 536.708 399.851 536.707 408.47 545.325L411.247 548.102L414.074 545.384C422.713 537.078 436.453 537.181 444.966 545.694C453.48 554.208 453.583 567.948 445.276 576.587L445.139 576.73L412.156 609.712C411.682 610.186 410.914 610.187 410.44 609.713L377.261 576.534C368.643 567.916 368.643 553.944 377.261 545.326Z" stroke="#B366FF" stroke-width="8"/>
<path d="M293.261 707.326C301.879 698.708 315.851 698.707 324.47 707.325L327.247 710.102L330.074 707.384C338.713 699.078 352.453 699.181 360.966 707.694C369.48 716.208 369.583 729.948 361.276 738.587L361.139 738.73L328.156 771.712C327.682 772.186 326.914 772.187 326.44 771.713L293.261 738.534C284.643 729.916 284.643 715.944 293.261 707.326Z" stroke="#B366FF" stroke-width="8"/>
<path d="M460.261 707.326C468.879 698.708 482.851 698.707 491.47 707.325L494.247 710.102L497.074 707.384C505.713 699.078 519.453 699.181 527.966 707.694C536.48 716.208 536.583 729.948 528.276 738.587L528.139 738.73L495.156 771.712C494.682 772.186 493.914 772.187 493.44 771.713L460.261 738.534C451.643 729.916 451.643 715.944 460.261 707.326Z" stroke="#B366FF" stroke-width="8"/>
<path d="M545.261 545.326C553.879 536.708 567.851 536.707 576.47 545.325L579.247 548.102L582.074 545.384C590.713 537.078 604.453 537.181 612.966 545.694C621.48 554.208 621.583 567.948 613.276 576.587L613.139 576.73L580.156 609.712C579.682 610.186 578.914 610.187 578.44 609.713L545.261 576.534C536.643 567.916 536.643 553.944 545.261 545.326Z" stroke="#B366FF" stroke-width="8"/>
<path d="M209.261 545.326C217.879 536.708 231.851 536.707 240.47 545.325L243.247 548.102L246.074 545.384C254.713 537.078 268.453 537.181 276.966 545.694C285.48 554.208 285.583 567.948 277.276 576.587L277.139 576.73L244.156 609.712C243.682 610.186 242.914 610.187 242.44 609.713L209.261 576.534C200.643 567.916 200.643 553.944 209.261 545.326Z" stroke="#B366FF" stroke-width="8"/>
<path d="M545.261 383.326C553.879 374.708 567.851 374.707 576.47 383.325L579.247 386.102L582.074 383.384C590.713 375.078 604.453 375.181 612.966 383.694C621.48 392.208 621.583 405.948 613.276 414.587L613.139 414.73L580.156 447.712C579.682 448.186 578.914 448.187 578.44 447.713L545.261 414.534C536.643 405.916 536.643 391.944 545.261 383.326Z" stroke="#B366FF" stroke-width="8"/>
<path d="M209.261 383.326C217.879 374.708 231.851 374.707 240.47 383.325L243.247 386.102L246.074 383.384C254.713 375.078 268.453 375.181 276.966 383.694C285.48 392.208 285.583 405.948 277.276 414.587L277.139 414.73L244.156 447.712C243.682 448.186 242.914 448.187 242.44 447.713L209.261 414.534C200.643 405.916 200.643 391.944 209.261 383.326Z" stroke="#B366FF" stroke-width="8"/>
<path d="M377.261 383.326C385.879 374.708 399.851 374.707 408.47 383.325L411.247 386.102L414.074 383.384C422.713 375.078 436.453 375.181 444.966 383.694C453.48 392.208 453.583 405.948 445.276 414.587L445.139 414.73L412.156 447.712C411.682 448.186 410.914 448.187 410.44 447.713L377.261 414.534C368.643 405.916 368.643 391.944 377.261 383.326Z" stroke="#B366FF" stroke-width="8"/>
<defs>
<clipPath id="clip0_31_1634">
<rect width="722" height="1022" fill="white" transform="translate(46 48)"/>
</clipPath>
</defs>
</svg>
